svg/playwright.svg

<?xml version="1.0" encoding="UTF-8"?>
<svg xmlns="http://www.w3.org/2000/svg" xmlns:xlink="http://www.w3.org/1999/xlink" width="32" height="32" viewBox="0 0 32 32">
<path fill-rule="nonzero" fill="rgb(17.647059%, 27.058824%, 32.156863%)" fill-opacity="1" d="M 10.886719 17.457031 C 9.769531 17.773438 9.035156 18.332031 8.550781 18.886719 C 9.011719 18.484375 9.632812 18.109375 10.472656 17.875 C 11.328125 17.628906 12.058594 17.632812 12.664062 17.75 L 12.664062 17.277344 C 12.066406 17.226562 11.460938 17.285156 10.886719 17.457031 M 8.496094 13.488281 L 4.339844 14.582031 C 4.339844 14.582031 4.414062 14.6875 4.554688 14.832031 L 8.082031 13.902344 C 8.082031 13.902344 8.03125 14.546875 7.597656 15.125 C 8.417969 14.503906 8.496094 13.488281 8.496094 13.488281 M 11.980469 23.261719 C 6.125 24.839844 3.03125 18.054688 2.09375 14.535156 C 1.660156 12.910156 1.46875 11.679688 1.421875 10.882812 C 1.414062 10.8125 1.417969 10.742188 1.421875 10.667969 C 1.121094 10.6875 0.972656 10.84375 1.003906 11.300781 C 1.054688 12.09375 1.242188 13.324219 1.675781 14.949219 C 2.613281 18.46875 5.710938 25.253906 11.5625 23.679688 C 12.835938 23.335938 13.792969 22.710938 14.511719 21.910156 C 13.851562 22.507812 13.023438 22.980469 11.980469 23.261719 M 13.078125 9.335938 L 13.078125 9.753906 L 15.375 9.753906 C 15.328125 9.605469 15.28125 9.472656 15.234375 9.335938 Z M 15.886719 12.765625 C 16.921875 13.058594 17.464844 13.785156 17.753906 14.425781 L 18.90625 14.75 C 18.90625 14.75 18.75 12.507812 16.722656 11.933594 C 14.824219 11.394531 13.65625 12.988281 13.515625 13.191406 C 14.066406 12.800781 14.875 12.476562 15.886719 12.765625 M 25.050781 14.433594 C 23.152344 13.894531 21.988281 15.488281 21.847656 15.691406 C 22.398438 15.300781 23.203125 14.976562 24.21875 15.265625 C 25.25 15.5625 25.796875 16.285156 26.085938 16.925781 L 27.238281 17.253906 C 27.238281 17.253906 27.078125 15.011719 25.050781 14.433594 M 23.910156 20.347656 L 14.332031 17.667969 C 14.332031 17.667969 14.433594 18.195312 14.835938 18.875 L 22.898438 21.128906 C 23.558594 20.746094 23.910156 20.347656 23.910156 20.347656 M 17.269531 26.109375 C 9.6875 24.074219 10.601562 14.414062 11.832031 9.835938 C 12.335938 7.949219 12.855469 6.546875 13.285156 5.605469 C 13.027344 5.554688 12.816406 5.6875 12.605469 6.117188 C 12.148438 7.042969 11.5625 8.554688 10.996094 10.667969 C 9.769531 15.246094 8.855469 24.90625 16.4375 26.941406 C 20.011719 27.898438 22.792969 26.441406 24.871094 24.15625 C 22.898438 25.941406 20.382812 26.941406 17.269531 26.109375 "/>
<path fill-rule="nonzero" fill="rgb(88.627451%, 34.117647%, 29.803922%)" fill-opacity="1" d="M 13.078125 20.996094 L 13.078125 19.046875 L 7.664062 20.585938 C 7.664062 20.585938 8.0625 18.257812 10.886719 17.457031 C 11.746094 17.214844 12.476562 17.214844 13.078125 17.332031 L 13.078125 9.335938 L 15.792969 9.335938 C 15.496094 8.421875 15.210938 7.71875 14.972656 7.230469 C 14.574219 6.425781 14.167969 6.960938 13.242188 7.734375 C 12.59375 8.277344 10.949219 9.4375 8.476562 10.101562 C 6 10.769531 4 10.59375 3.164062 10.449219 C 1.980469 10.242188 1.363281 9.984375 1.421875 10.882812 C 1.472656 11.679688 1.660156 12.910156 2.09375 14.535156 C 3.03125 18.054688 6.128906 24.839844 11.980469 23.261719 C 13.507812 22.847656 14.589844 22.035156 15.335938 20.996094 Z M 4.339844 14.582031 L 8.496094 13.488281 C 8.496094 13.488281 8.375 15.085938 6.816406 15.5 C 5.257812 15.910156 4.339844 14.582031 4.339844 14.582031 "/>
<path fill-rule="nonzero" fill="rgb(18.039216%, 67.843137%, 20%)" fill-opacity="1" d="M 28.734375 9.429688 C 27.652344 9.617188 25.058594 9.855469 21.851562 8.996094 C 18.648438 8.136719 16.519531 6.632812 15.675781 5.929688 C 14.480469 4.925781 13.957031 4.230469 13.4375 5.285156 C 12.980469 6.210938 12.398438 7.722656 11.832031 9.835938 C 10.601562 14.414062 9.6875 24.074219 17.269531 26.109375 C 24.851562 28.140625 28.886719 19.3125 30.113281 14.734375 C 30.679688 12.621094 30.925781 11.019531 30.996094 9.988281 C 31.074219 8.820312 30.269531 9.160156 28.734375 9.429688 M 13.5 13.214844 C 13.5 13.214844 14.695312 11.355469 16.722656 11.933594 C 18.75 12.507812 18.90625 14.75 18.90625 14.75 Z M 18.449219 21.554688 C 14.882812 20.511719 14.332031 17.667969 14.332031 17.667969 L 23.910156 20.347656 C 23.910156 20.34375 21.976562 22.585938 18.449219 21.554688 M 21.832031 15.714844 C 21.832031 15.714844 23.027344 13.855469 25.050781 14.433594 C 27.078125 15.011719 27.238281 17.253906 27.238281 17.253906 Z M 21.832031 15.714844 "/>
<path fill-rule="nonzero" fill="rgb(83.921569%, 32.54902%, 28.235294%)" fill-opacity="1" d="M 11.1875 19.585938 L 7.664062 20.582031 C 7.664062 20.582031 8.046875 18.402344 10.640625 17.539062 L 8.644531 10.050781 L 8.472656 10.101562 C 6 10.769531 4 10.59375 3.164062 10.449219 C 1.980469 10.242188 1.363281 9.984375 1.421875 10.882812 C 1.46875 11.679688 1.660156 12.910156 2.09375 14.535156 C 3.03125 18.054688 6.125 24.839844 11.980469 23.261719 L 12.152344 23.207031 Z M 4.339844 14.582031 L 8.496094 13.488281 C 8.496094 13.488281 8.375 15.085938 6.816406 15.5 C 5.257812 15.910156 4.339844 14.582031 4.339844 14.582031 "/>
<path fill-rule="nonzero" fill="rgb(11.372549%, 55.294118%, 13.333333%)" fill-opacity="1" d="M 18.609375 21.59375 L 18.445312 21.554688 C 14.882812 20.511719 14.332031 17.667969 14.332031 17.667969 L 19.269531 19.046875 L 21.882812 9.003906 L 21.851562 8.996094 C 18.644531 8.136719 16.519531 6.632812 15.675781 5.929688 C 14.480469 4.925781 13.957031 4.230469 13.4375 5.285156 C 12.980469 6.210938 12.398438 7.722656 11.832031 9.835938 C 10.601562 14.414062 9.6875 24.074219 17.269531 26.109375 L 17.425781 26.144531 Z M 13.5 13.214844 C 13.5 13.214844 14.695312 11.355469 16.722656 11.933594 C 18.75 12.507812 18.90625 14.75 18.90625 14.75 Z M 13.5 13.214844 "/>
<path fill-rule="nonzero" fill="rgb(75.294118%, 29.411765%, 25.490196%)" fill-opacity="1" d="M 11.367188 19.535156 L 10.421875 19.800781 C 10.644531 21.0625 11.039062 22.269531 11.65625 23.335938 C 11.761719 23.3125 11.871094 23.292969 11.980469 23.261719 C 12.253906 23.1875 12.527344 23.09375 12.789062 22.984375 C 12.097656 21.960938 11.640625 20.78125 11.367188 19.535156 M 10.996094 10.667969 C 10.511719 12.480469 10.078125 15.089844 10.195312 17.707031 C 10.417969 17.609375 10.652344 17.523438 10.886719 17.457031 L 11.0625 17.417969 C 10.851562 14.621094 11.3125 11.773438 11.832031 9.835938 C 11.953125 9.375 12.085938 8.917969 12.226562 8.464844 C 11.996094 8.609375 11.761719 8.75 11.523438 8.878906 C 11.332031 9.46875 11.15625 10.066406 10.996094 10.667969 "/>
</svg>

<svg role="img" viewBox="0 0 32 32" height="32" width="32" xmlns="http://www.w3.org/2000/svg"><path d="M10.887 17.457c-1.117.316-1.852.875-2.336 1.43.46-.403 1.082-.778 1.922-1.012.855-.246 1.586-.242 2.191-.125v-.473a4.793 4.793 0 0 0-1.777.18m-2.39-3.969L4.34 14.582s.074.105.215.25l3.527-.93s-.05.645-.484 1.223c.82-.621.898-1.637.898-1.637m3.484 9.774c-5.855 1.578-8.949-5.207-9.886-8.727-.434-1.625-.625-2.855-.672-3.652-.008-.07-.004-.14 0-.215-.3.02-.45.176-.418.633.05.793.238 2.023.672 3.648.937 3.52 4.035 10.305 9.887 8.73 1.273-.343 2.23-.968 2.949-1.769-.66.598-1.489 1.07-2.532 1.352m1.098-13.926v.418h2.297c-.047-.149-.094-.281-.14-.418Zm2.809 3.43c1.035.293 1.578 1.02 1.867 1.66l1.152.324s-.156-2.242-2.183-2.816c-1.899-.54-3.067 1.054-3.207 1.257.55-.39 1.359-.714 2.37-.425m9.165 1.668c-1.899-.54-3.063 1.054-3.203 1.257.55-.39 1.355-.714 2.37-.425 1.032.297 1.579 1.02 1.868 1.66l1.152.328s-.16-2.242-2.187-2.82m-1.14 5.914-9.579-2.68s.102.527.504 1.207l8.062 2.254c.66-.383 1.012-.781 1.012-.781m-6.64 5.761c-7.582-2.035-6.668-11.695-5.438-16.273.504-1.887 1.023-3.29 1.453-4.23-.258-.051-.469.082-.68.511-.457.926-1.043 2.438-1.609 4.551-1.226 4.578-2.14 14.238 5.442 16.273 3.574.957 6.355-.5 8.433-2.785-1.973 1.785-4.488 2.785-7.601 1.953" fill="rgb(17.647059%, 27.058824%, 32.156863%)"/><path d="M13.078 20.996v-1.95l-5.414 1.54s.399-2.328 3.223-3.129c.86-.242 1.59-.242 2.191-.125V9.336h2.715c-.297-.914-.582-1.617-.82-2.106-.399-.804-.805-.27-1.73.504-.65.543-2.294 1.704-4.766 2.368-2.477.668-4.477.492-5.313.347-1.184-.207-1.8-.465-1.742.434.05.797.238 2.027.672 3.652.937 3.52 4.035 10.305 9.886 8.727 1.528-.414 2.61-1.227 3.356-2.266ZM4.34 14.582l4.156-1.094s-.121 1.598-1.68 2.012c-1.558.41-2.476-.918-2.476-.918" fill="rgb(88.627451%, 34.117647%, 29.803922%)"/><path d="M28.734 9.43c-1.082.187-3.675.425-6.882-.434-3.204-.86-5.332-2.363-6.176-3.066-1.196-1.004-1.719-1.7-2.238-.645-.458.926-1.04 2.438-1.606 4.55-1.23 4.58-2.145 14.24 5.438 16.274 7.582 2.032 11.617-6.797 12.843-11.375.567-2.113.813-3.714.883-4.746.078-1.168-.726-.828-2.262-.558M13.5 13.215s1.195-1.86 3.223-1.281c2.027.574 2.183 2.816 2.183 2.816Zm4.95 8.34c-3.567-1.043-4.118-3.887-4.118-3.887l9.578 2.68c0-.004-1.933 2.238-5.46 1.207m3.382-5.84s1.195-1.86 3.219-1.281c2.027.578 2.187 2.82 2.187 2.82Zm0 0" fill="rgb(18.039216%, 67.843137%, 20%)"/><path d="m11.188 19.586-3.524.996s.383-2.18 2.977-3.043l-1.996-7.488-.172.05C6 10.77 4 10.595 3.164 10.45c-1.184-.207-1.8-.465-1.742.434.047.797.238 2.027.672 3.652.937 3.52 4.031 10.305 9.886 8.727l.172-.055ZM4.34 14.582l4.156-1.094s-.121 1.598-1.68 2.012c-1.558.41-2.476-.918-2.476-.918" fill="rgb(83.921569%, 32.54902%, 28.235294%)"/><path d="m18.61 21.594-.165-.04c-3.562-1.042-4.113-3.886-4.113-3.886l4.938 1.379 2.613-10.043-.031-.008c-3.207-.86-5.332-2.363-6.176-3.066-1.196-1.004-1.719-1.7-2.238-.645-.458.926-1.04 2.438-1.606 4.55-1.23 4.58-2.145 14.24 5.438 16.274l.156.036Zm-5.11-8.38s1.195-1.859 3.223-1.28c2.027.574 2.183 2.816 2.183 2.816Zm0 0" fill="rgb(11.372549%, 55.294118%, 13.333333%)"/><path d="m11.367 19.535-.945.266c.223 1.262.617 2.469 1.234 3.535.106-.023.215-.043.324-.074a6.58 6.58 0 0 0 .81-.278c-.692-1.023-1.15-2.203-1.423-3.449m-.37-8.867c-.485 1.812-.919 4.422-.802 7.039.223-.098.457-.184.692-.25l.175-.039c-.21-2.797.25-5.645.77-7.582.121-.461.254-.918.395-1.371-.23.144-.465.285-.704.414a34.84 34.84 0 0 0-.527 1.789" fill="rgb(75.294118%, 29.411765%, 25.490196%)"/></svg>
